media/costumes/flower_shape.svg

<svg width="82" height="88" xmlns="http://www.w3.org/2000/svg"><defs><linearGradient id="a" x1="19.449" y1="72.607" x2="124.432" y2="72.607" gradientUnits="userSpaceOnUse"><stop offset="0" stop-color="#DA1C5C"/><stop offset="1" stop-color="#4B0049"/></linearGradient><linearGradient id="b" x1="29.061" y1="72.607" x2="114.819" y2="72.607" gradientUnits="userSpaceOnUse"><stop offset="0" stop-color="#EE2A7B"/><stop offset="1" stop-color="#811150"/></linearGradient></defs><path fill="url(#a)" d="M124.432 61.994c0-16.002-10.939-29.596-26.091-33.284-6.474-7.866-16.054-12.448-26.401-12.448-10.346 0-19.924 4.582-26.397 12.447-15.153 3.687-26.094 17.282-26.094 33.285 0 3.634.57 7.189 1.698 10.614a33.792 33.792 0 0 0-1.698 10.614c0 16.002 10.94 29.597 26.093 33.284 6.471 7.864 16.05 12.446 26.397 12.446 10.347 0 19.926-4.582 26.399-12.445 15.151-3.688 26.093-17.283 26.093-33.285 0-3.634-.569-7.188-1.698-10.614a33.778 33.778 0 0 0 1.699-10.614z" transform="translate(-13.962 -11.725) scale(.7351)"/><path fill="url(#b)" d="M114.819 61.994c0-12.714-9.622-23.173-21.981-24.509-4.359-6.964-12.077-11.611-20.898-11.611-8.819 0-16.536 4.646-20.895 11.611-12.36 1.335-21.983 11.795-21.983 24.509 0 3.805.886 7.396 2.426 10.614a24.509 24.509 0 0 0-2.426 10.615c0 12.714 9.623 23.174 21.983 24.51 4.357 6.963 12.073 11.608 20.895 11.608s16.538-4.646 20.896-11.608c12.361-1.336 21.983-11.796 21.983-24.51 0-3.807-.887-7.396-2.426-10.615a24.511 24.511 0 0 0 2.426-10.614z" transform="translate(-13.962 -11.725) scale(.7351)"/></svg>

<svg version="1.1" width="82" height="88" xmlns="http://www.w3.org/2000/svg" xmlns:xlink="http://www.w3.org/1999/xlink">
  <defs>
    <linearGradient id="grad_1" x1="19.4492" y1="72.6074" x2="124.4316" y2="72.6074" gradientUnits="userSpaceOnUse">
      <stop offset="0" stop-color="#DA1C5C"/>
      <stop offset="1" stop-color="#4B0049"/>
    </linearGradient>
    <linearGradient id="grad_2" x1="29.0615" y1="72.6074" x2="114.8193" y2="72.6074" gradientUnits="userSpaceOnUse">
      <stop offset="0" stop-color="#EE2A7B"/>
      <stop offset="1" stop-color="#811150"/>
    </linearGradient>
  </defs>
  <!-- Exported by Scratch - http://scratch.mit.edu/ -->
  <g id="ID0.7405319735407829" transform="matrix(0.949999988079071, 0, 0, 0.949999988079071, 0.05, 0.15)">
    <path id="ID0.9742209389805794" fill="url(#grad_1)" d="M 124.432 61.994 C 124.432 45.992 113.493 32.398 98.341 28.710 C 91.867 20.844 82.287 16.262 71.940 16.262 C 61.594 16.262 52.016 20.844 45.543 28.709 C 30.390 32.396 19.449 45.991 19.449 61.994 C 19.449 65.628 20.019 69.183 21.147 72.608 C 20.019 76.033 19.449 79.587 19.449 83.222 C 19.449 99.224 30.389 112.819 45.542 116.506 C 52.013 124.370 61.592 128.952 71.939 128.952 C 82.286 128.952 91.865 124.370 98.338 116.507 C 113.489 112.819 124.431 99.224 124.431 83.222 C 124.431 79.588 123.862 76.034 122.733 72.608 C 123.862 69.182 124.432 65.627 124.432 61.994 Z " transform="matrix(0.7737809419631958, 0, 0, 0.7737809419631958, -14.75, -12.5)"/>
    <path id="ID0.6661926116794348" fill="url(#grad_2)" d="M 114.819 61.994 C 114.819 49.280 105.197 38.821 92.838 37.485 C 88.479 30.521 80.761 25.874 71.940 25.874 C 63.121 25.874 55.404 30.520 51.045 37.485 C 38.685 38.820 29.062 49.280 29.062 61.994 C 29.062 65.799 29.948 69.390 31.488 72.608 C 29.948 75.826 29.062 79.416 29.062 83.223 C 29.062 95.937 38.685 106.397 51.045 107.733 C 55.402 114.696 63.118 119.341 71.940 119.341 C 80.762 119.341 88.478 114.695 92.836 107.733 C 105.197 106.397 114.819 95.937 114.819 83.223 C 114.819 79.416 113.932 75.827 112.393 72.608 C 113.933 69.390 114.819 65.799 114.819 61.994 Z " transform="matrix(0.7737809419631958, 0, 0, 0.7737809419631958, -14.75, -12.5)"/>
  </g>
</svg>
